X:53
T:Yankee Doodle
M:2/4
Q:1/4=90
L:1/8
K:D
%%MIDI channel 1
%%MIDI program 72
%%MIDI transpose 8
%%MIDI grace 1/8
%%MIDI ratio 3 1
(3A/B/c/|dd ef|df e(3A/B/c/|dd ef|d2 c(3A/B/c/|dd ef|gf ed|cA Bc|d2 d2|
B>c BA|Bc d2|A>B AG|F2 A2|B>c BA|Bc dB|Ad ce|d2 d:|
